packages/sources/icons/src/vitamix/whatsapp-line.svg

<svg width="16" height="16" viewBox="0 0 16 16" fill="none" xmlns="http://www.w3.org/2000/svg">
<path fill-rule="evenodd" clip-rule="evenodd" d="M1.33599 14.6667L2.23732 11.3547C1.64341 10.3366 1.33139 9.17866 1.33332 8C1.33332 4.318 4.31799 1.33333 7.99999 1.33333C11.682 1.33333 14.6667 4.318 14.6667 8C14.6667 11.682 11.682 14.6667 7.99999 14.6667C6.82184 14.6686 5.66443 14.3568 4.64666 13.7633L1.33599 14.6667ZM4.83533 12.3293L5.31799 12.6113C6.13195 13.086 7.05772 13.3353 7.99999 13.3333C10.9455 13.3333 13.3333 10.9455 13.3333 8C13.3333 5.05448 10.9455 2.66667 7.99999 2.66667C5.05447 2.66667 2.66666 5.05448 2.66666 8C2.66666 8.95733 2.91799 9.87533 3.38933 10.6827L3.67066 11.1653L3.23533 12.766L4.83533 12.3293ZM5.86267 4.86932C5.77334 4.86532 5.68334 4.86532 5.59401 4.87199L5.59334 4.87132C5.50725 4.87667 5.42312 4.89935 5.346 4.93799C5.288 4.96732 5.23467 5.00999 5.15 5.08999C5.08296 5.15366 5.03972 5.21018 4.99856 5.26399C4.99102 5.27385 4.98354 5.28362 4.976 5.29332C4.72957 5.61444 4.59726 6.00856 4.6 6.41332C4.60625 6.73959 4.68145 7.06085 4.82067 7.35599C5.09267 7.95732 5.54067 8.59399 6.13401 9.18399C6.15653 9.20641 6.17897 9.22885 6.20139 9.25126C6.32095 9.37079 6.43979 9.4896 6.56667 9.60133C7.30226 10.249 8.17884 10.716 9.12667 10.9653C9.12667 10.9653 9.5 11.0233 9.50534 11.0233C9.61166 11.029 9.7175 11.023 9.82326 11.017C9.84084 11.0159 9.85842 11.0149 9.87601 11.014C10.0701 11.0042 10.2597 10.9518 10.4313 10.8607C10.5186 10.8155 10.6038 10.7666 10.6867 10.714C10.7149 10.6946 10.7426 10.6746 10.77 10.654C10.8491 10.5969 10.9227 10.5326 10.99 10.462C11.0471 10.4028 11.0944 10.3348 11.13 10.2607C11.182 10.152 11.234 9.94466 11.2553 9.77199C11.2707 9.63999 11.2667 9.56799 11.264 9.52332C11.262 9.45199 11.2027 9.37799 11.1373 9.34666L10.7493 9.17266C10.7493 9.17266 10.17 8.91999 9.816 8.75799C9.77867 8.74132 9.738 8.73399 9.698 8.73132C9.60572 8.72185 9.51385 8.75272 9.446 8.81599V8.81466C9.44201 8.81466 9.39801 8.85266 8.91534 9.43732C8.85886 9.5131 8.76225 9.54732 8.67067 9.52399C8.62734 9.51266 8.58467 9.49732 8.54334 9.47999C8.49029 9.45732 8.45948 9.4437 8.42923 9.43034C8.41235 9.42288 8.39564 9.4155 8.37534 9.40666L8.372 9.40532C7.99067 9.23866 7.63734 9.01399 7.32534 8.73866C7.26326 8.68397 7.20446 8.62637 7.14571 8.56882C7.12496 8.54849 7.10422 8.52817 7.08334 8.50799C6.80334 8.23599 6.57401 7.94732 6.40334 7.66266L6.36401 7.59932C6.336 7.55399 6.30534 7.49999 6.296 7.46266C6.27067 7.36466 6.33667 7.28599 6.33667 7.28599C6.33667 7.28599 6.49867 7.10866 6.57401 7.01199C6.63671 6.93242 6.69524 6.84964 6.74934 6.76399C6.828 6.63732 6.85267 6.50732 6.81134 6.40599C6.62467 5.95066 6.43134 5.49666 6.23267 5.04599C6.19334 4.95666 6.07667 4.89199 5.97067 4.87999L5.97067 4.87999C5.93467 4.87599 5.89867 4.87199 5.86267 4.86932Z" fill="#001018"/>
</svg>

<svg width="16" height="16" fill="none" xmlns="http://www.w3.org/2000/svg"><path fill-rule="evenodd" clip-rule="evenodd" d="m1.336 14.667.901-3.312a6.667 6.667 0 1 1 2.41 2.409l-3.311.903zm3.5-2.338.482.282a5.333 5.333 0 1 0-1.929-1.929l.282.483-.436 1.601 1.6-.437zm1.027-7.46a2.257 2.257 0 0 0-.269.003.64.64 0 0 0-.248.066.849.849 0 0 0-.196.152 1.353 1.353 0 0 0-.174.203 1.82 1.82 0 0 0-.376 1.12c.006.327.081.648.22.943.273.601.72 1.238 1.314 1.828l.067.067a6.298 6.298 0 0 0 2.925 1.714l.38.058a2.88 2.88 0 0 0 .37-.009c.194-.01.384-.062.555-.153a3.36 3.36 0 0 0 .256-.147l.083-.06c.08-.057.153-.121.22-.192a.771.771 0 0 0 .14-.201c.052-.109.104-.316.125-.489a1.28 1.28 0 0 0 .009-.249c-.002-.071-.061-.145-.127-.176l-.388-.174s-.579-.253-.933-.415a.345.345 0 0 0-.118-.027.321.321 0 0 0-.252.085v-.001c-.004 0-.048.038-.53.622a.233.233 0 0 1-.245.087.958.958 0 0 1-.128-.044l-.114-.05a10.251 10.251 0 0 0-.054-.023l-.003-.002a4.006 4.006 0 0 1-1.047-.666c-.062-.055-.12-.113-.18-.17l-.062-.061a4.224 4.224 0 0 1-.68-.845l-.039-.064a.59.59 0 0 1-.068-.136c-.025-.098.04-.177.04-.177s.163-.177.238-.274c.063-.08.121-.162.175-.248.079-.127.104-.257.062-.358-.186-.455-.38-.91-.578-1.36-.04-.09-.156-.154-.262-.166a2.966 2.966 0 0 0-.108-.01z" fill="#001018"/></svg>
